X:1
T:Title
%%score ( 1 2 ) 3
L:1/8
Q:1/4=95
M:4/4
K:Eb
V:1 treble nm="Grand Piano, Soprano"
V:2 treble 
V:3 bass nm="Choir Pad, Echoes from Heaven"
V:1
 [B,E][B,F][EG][EG]- [EG][EG][B,F][B,E] | [B,E][EG][GB][GB]- [GB][Ac] [GB]2 | %2
w: By~Thomas~R.~Sweatmon * * * * * * *||
 [B,E][B,F][EG][EG]- [EG][EG][EB][EG] | [DF]E[EF][EF]- [EF][EG] [DF]2 | %4
w: ||
 [B,E][B,F][EG][EG]- [EG][EG][EB][EG] | [DF]E[Ee][Ae]- [Ae][Ac] [GB]2 | %6
w: ||
 [EG][GB][Ac][Ae]- [Ae][Ac][GB][EG] | [EF]E[DG][DG]- [DG][DF] E2 | %8
w: ||
 [EG][EB][Ge][Ge]- [Ge][Ge][Fd][Ge] | z2 e6 | [B,E][B,F][EG][GB]- [GB][GB][Ac][GB] | %11
w: |||
 [EG]E[EF][EF]- [EF][EG] [DF]2 | [B,E][B,F][EG][EG]- [EG][EG][EB][EG] | %13
w: ||
 [DF]E[Ee][Ae]- [Ae][Ac] [GB]2 | [EG][GB][Ac][Ae]- [Ae][Ac][GB][EG] | [EF]E[DG][DG]- [DG][DF] E2- | %16
w: |||
 E6 z2 |] %17
w: |
V:2
 x8 | x8 | x8 | x8 | x8 | x8 | x8 | x8 | x8 | [Af][Af] G2 AA G2 | x8 | x8 | x8 | x8 | x8 | x8 | %16
 x8 |] %17
V:3
 [E,G,][E,A,][E,B,][E,B,]- [E,B,][E,B,][E,A,][E,G,] | [E,G,][E,B,][E,E][E,E]- [E,E][E,E] [E,E]2 | %2
 [E,G,][E,A,][E,B,][E,B,]- [E,B,][E,B,][E,G,][E,B,] | %3
 [F,B,][G,B,][F,=A,][F,A,]- [F,A,][F,A,] [B,,B,]2 | %4
 [E,G,][E,A,][E,B,][E,B,]- [E,B,][E,B,][E,G,][E,B,] | [F,B,][G,B,][A,C][A,C]- [A,C][A,E] [E,E]2 | %6
 [E,B,][E,E][E,E][A,C]- [A,C][A,E][E,E][E,B,] | %7
 [C,=A,][C,A,][B,,B,][B,,B,]- [B,,B,][B,,_A,] [E,G,]2 | %8
 [E,B,][E,G,][E,B,][E,B,]- [E,B,][G,B,]B,B, | B,B, [E,B,]2 [A,C][A,C] [E,B,]2 | %10
 [E,G,][E,A,][E,B,][E,E]- [E,E][E,E][E,E][E,E] | [E,B,][G,B,][F,=A,][F,A,]- [F,A,][F,A,] [B,,B,]2 | %12
 [E,G,][E,A,][E,B,][E,B,]- [E,B,][E,B,][E,G,][E,B,] | [F,B,][G,B,][A,C][A,C]- [A,C][A,E] [E,E]2 | %14
 [E,B,][E,E][E,E][A,C]- [A,C][A,E][E,E][E,B,] | %15
 [C,=A,][C,A,][B,,B,][B,,B,]- [B,,B,][B,,_A,] [E,G,]2- | [E,G,]6 z2 |] %17

